icons/circle/48/hexalate.svg

<svg version="1.1" viewBox="0 0 48 48" xmlns="http://www.w3.org/2000/svg">
 <defs>
  <linearGradient id="linearGradient3396" x1="1" x2="47" gradientTransform="rotate(-90 24 24)" gradientUnits="userSpaceOnUse">
   <stop style="stop-color:#3d3d3d" offset="0"/>
   <stop style="stop-color:#474747" offset="1"/>
  </linearGradient>
 </defs>
 <path d="m36.31 5c5.859 4.062 9.688 10.831 9.688 18.5 0 12.426-10.07 22.5-22.5 22.5-7.669 0-14.438-3.828-18.5-9.688 1.037 1.822 2.306 3.499 3.781 4.969 4.085 3.712 9.514 5.969 15.469 5.969 12.703 0 23-10.298 23-23 0-5.954-2.256-11.384-5.969-15.469-1.469-1.475-3.147-2.744-4.969-3.781zm4.969 3.781c3.854 4.113 6.219 9.637 6.219 15.719 0 12.703-10.297 23-23 23-6.081 0-11.606-2.364-15.719-6.219 4.16 4.144 9.883 6.719 16.219 6.719 12.703 0 23-10.298 23-23 0-6.335-2.575-12.06-6.719-16.219z" style="opacity:.05"/>
 <path d="m41.28 8.781c3.712 4.085 5.969 9.514 5.969 15.469 0 12.703-10.297 23-23 23-5.954 0-11.384-2.256-15.469-5.969 4.113 3.854 9.637 6.219 15.719 6.219 12.703 0 23-10.298 23-23 0-6.081-2.364-11.606-6.219-15.719z" style="opacity:.1"/>
 <path d="m31.25 2.375c8.615 3.154 14.75 11.417 14.75 21.13 0 12.426-10.07 22.5-22.5 22.5-9.708 0-17.971-6.135-21.12-14.75a23 23 0 0 0 44.875 -7 23 23 0 0 0 -16 -21.875z" style="opacity:.2"/>
 <path d="m18.42 1.6854 0.0061 0.021467c1.0365-0.25607 0-0.0046-0.0061-0.021467zm0.0061 0.021467c-4.2381 1.0565-8.0101 3.2737-10.953 6.3158 3.5282 7.4919 10.217 11.526 16.525 15.977-0.70533-7.4919 1.0733-15.29-5.5737-22.293m5.5737 22.293c6.5351-4.2642 12.586-9.0283 16.525-15.977-2.9409-3.0421-6.7129-5.2593-10.953-6.3158-4.5893 6.6501-4.5586 14.622-5.5737 22.293 7.1438 2.4855 13.323 6.6102 22.098 6.3219 0.575-2.0102 0.9016-4.1262 0.9016-6.3219s-0.3266-4.3117-0.9016-6.3219c-7.9059 0.81113-15.088 3.3626-22.098 6.3219 1.2037 7.682 1.4873 15.714 5.5737 22.293 4.2381-1.0565 8.0101-3.2737 10.953-6.3158-4.0787-6.1487-9.4668-11.544-16.525-15.977-6.9506 4.2335-12.556 9.4852-16.525 15.977 2.9409 3.0421 6.7129 5.2593 10.953 6.3158 4.002-6.164 4.5049-14.398 5.5737-22.293-7.0671-2.4211-13.447-5.5675-22.098-6.3219-0.575 2.0102-0.9016 4.1262-0.9016 6.3219s0.3266 4.3117 0.9016 6.3219c8.8105-0.3634 15.902-2.8029 22.098-6.3219m-5.5737 22.293-0.0061 0.02147c0.0077-0.0031 0.0046 0 0.0061-0.02147zm27.677-28.615v-0.0031c0-0.0046-0.01073 0 0 0.0031zm-5.5614-9.6677-0.01227 0.012267c1.4275 1.5686 1.2083 1.3217 0.01227-0.012267zm-10.963-6.3035 0.0061-0.021467c-0.0077 0-0.0046 0.0138-0.0061 0.021467z" style="fill:url(#linearGradient3396);stroke-width:1.5333"/>
 <path d="m25 2c-1.924 0-3.7921 0.23955-5.5781 0.68555l5.5781 22.313 5.5781-22.313c-1.786-0.445-3.6541-0.68555-5.5781-0.68555zm0 22.998v0.001953l-16.535-15.988c-1.279 1.325-2.4208 2.8223-3.3828 4.4883-0.962 1.666-1.6883 3.4038-2.1953 5.1738l22.109 6.3262-22.105 6.3262c0.508 1.77 1.2333 3.5068 2.1953 5.1738 0.80011 1.3865 1.7349 2.6432 2.7598 3.793 0.23529 0.20633 0.479 0.40291 0.72266 0.59961l16.43-15.887-5.1914 20.773c1.0438 0.14459 2.108 0.2207 3.1914 0.2207 2.4341 0 4.7786-0.38141 6.9805-1.082l-4.9766-19.916 14.494 14.016c2.2938-2.3622 4.0856-5.2134 5.2012-8.3848l-19.693-5.6328v-0.001953h-0.001953-0.001953zm0.003906 0l20.658-5.9102c-0.62929-3.6804-2.1271-7.0645-4.2832-9.9258l-16.375 15.836z" style="fill-opacity:.098"/>
 <path d="m24 24 16.535 15.988c1.2788-1.3248 2.4211-2.8213 3.3825-4.4881s1.6882-3.404 2.1957-5.1735l-22.114-6.3265" style="fill:#68d87b"/>
 <path d="m24 24 22.114-6.3265c-0.50753-1.7695-1.2328-3.5067-2.1957-5.1735-0.9614-1.6667-2.1037-3.1633-3.3825-4.4881l-16.535 15.988" style="fill:#f1f05b"/>
 <path d="m24 24-5.5783 22.315c1.7863 0.44467 3.6539 0.6854 5.5783 0.6854s3.7919-0.24073 5.5783-0.6854l-5.5783-22.315" style="fill:#dedede"/>
 <path d="m24 24 5.5783-22.315c-1.7863-0.44467-3.6539-0.6854-5.5783-0.6854s-3.7919 0.24073-5.5783 0.6854l5.5783 22.315" style="fill:#ed7749"/>
 <path d="m24 24-16.535-15.988c-1.2788 1.3248-2.4211 2.8213-3.3825 4.4881-0.9614 1.6667-1.6882 3.404-2.1957 5.1735l22.114 6.3265" style="fill:#dc7096"/>
 <path d="m24 24-22.114 6.3265c0.50753 1.7695 1.2328 3.5067 2.1957 5.1735 0.9614 1.6667 2.1037 3.1633 3.3825 4.4881l16.535-15.988" style="fill:#508fd0"/>
 <path d="m40.03 7.531c3.712 4.084 5.969 9.514 5.969 15.469 0 12.703-10.297 23-23 23-5.954 0-11.384-2.256-15.469-5.969 4.178 4.291 10.01 6.969 16.469 6.969 12.703 0 23-10.298 23-23 0-6.462-2.677-12.291-6.969-16.469z" style="opacity:.1"/>
</svg>

<svg viewBox="0 0 48 48" xmlns="http://www.w3.org/2000/svg">
  <defs>
    <linearGradient id="a" x1="1" x2="47" gradientTransform="rotate(-90 24 24)" gradientUnits="userSpaceOnUse">
      <stop offset="0" stop-color="#3d3d3d"/>
      <stop offset="1" stop-color="#474747"/>
    </linearGradient>
  </defs>
  <path d="M36.31 5c5.859 4.062 9.688 10.831 9.688 18.5 0 12.426-10.07 22.5-22.5 22.5-7.669 0-14.438-3.828-18.5-9.688a23.24 23.24 0 0 0 3.781 4.969 22.923 22.923 0 0 0 15.469 5.969c12.703 0 23-10.298 23-23a22.92 22.92 0 0 0-5.969-15.469A23.216 23.216 0 0 0 36.31 5zm4.969 3.781A22.911 22.911 0 0 1 47.498 24.5c0 12.703-10.297 23-23 23a22.909 22.909 0 0 1-15.719-6.219C12.939 45.425 18.662 48 24.998 48c12.703 0 23-10.298 23-23 0-6.335-2.575-12.06-6.719-16.219z" opacity=".05"/>
  <path d="M41.28 8.781a22.923 22.923 0 0 1 5.969 15.469c0 12.703-10.297 23-23 23A22.92 22.92 0 0 1 8.78 41.281 22.911 22.911 0 0 0 24.499 47.5c12.703 0 23-10.298 23-23A22.909 22.909 0 0 0 41.28 8.781z" opacity=".1"/>
  <path d="M31.25 2.375C39.865 5.529 46 13.792 46 23.505c0 12.426-10.07 22.5-22.5 22.5-9.708 0-17.971-6.135-21.12-14.75a23 23 0 0 0 44.875-7 23 23 0 0 0-16-21.875z" opacity=".2"/>
  <path d="M18.42 1.685l.006.022c1.037-.256 0-.005-.006-.022zm.006.022A22.953 22.953 0 0 0 7.473 8.023C11.001 15.515 17.69 19.549 23.998 24c-.705-7.492 1.073-15.29-5.574-22.293M23.998 24c6.535-4.265 12.586-9.029 16.525-15.977A22.935 22.935 0 0 0 29.57 1.707C24.98 8.357 25.011 16.329 23.996 24c7.144 2.485 13.323 6.61 22.098 6.322.575-2.01.902-4.126.902-6.322s-.327-4.312-.902-6.322c-7.906.811-15.088 3.363-22.098 6.322 1.204 7.682 1.488 15.714 5.574 22.293a22.953 22.953 0 0 0 10.953-6.316C36.444 33.828 31.056 28.433 23.998 24c-6.95 4.234-12.556 9.485-16.525 15.977a22.935 22.935 0 0 0 10.953 6.316C22.428 40.129 22.931 31.895 24 24c-7.067-2.421-13.447-5.568-22.098-6.322C1.327 19.688 1 21.804 1 24s.327 4.312.902 6.322C10.712 29.958 17.804 27.519 24 24m-5.574 22.293l-.006.021c.008-.003.005 0 .006-.021zm27.677-28.615v-.003c0-.005-.01 0 0 .003zM40.542 8.01l-.013.012c1.428 1.569 1.209 1.322.013-.012zM29.579 1.707l.006-.022c-.008 0-.005.014-.006.022z" fill="url(#a)"/>
  <path d="M25 2c-1.924 0-3.792.24-5.578.686L25 24.999l5.578-22.313A23.045 23.045 0 0 0 25 2zm0 22.998V25L8.465 9.012a23.053 23.053 0 0 0-5.578 9.662L24.996 25 2.89 31.326A23.064 23.064 0 0 0 5.086 36.5a22.905 22.905 0 0 0 2.76 3.793c.235.207.479.403.723.6l16.43-15.887-5.192 20.773c1.044.144 2.108.22 3.192.22 2.434 0 4.778-.38 6.98-1.081l-4.976-19.916 14.494 14.016a22.997 22.997 0 0 0 5.2-8.385L25.006 25v-.002H25zm.004 0l20.658-5.91a22.886 22.886 0 0 0-4.283-9.926L25.004 24.998z" fill-opacity=".098"/>
  <path d="M24 24l16.535 15.988a23.005 23.005 0 0 0 5.578-9.662L24 24" fill="#68d87b"/>
  <path d="M24 24l22.114-6.327a23.007 23.007 0 0 0-5.578-9.661L24 24" fill="#f1f05b"/>
  <path d="M24 24l-5.578 22.315a23.063 23.063 0 0 0 11.156 0L24 24" fill="#dedede"/>
  <path d="M24 24l5.578-22.315a23.063 23.063 0 0 0-11.156 0L24 24" fill="#ed7749"/>
  <path d="M24 24L7.465 8.012a23.005 23.005 0 0 0-5.578 9.662L24 24" fill="#dc7096"/>
  <path d="M24 24L1.886 30.327a23.007 23.007 0 0 0 5.578 9.661L24 24" fill="#508fd0"/>
  <path d="M40.03 7.531A22.922 22.922 0 0 1 45.999 23c0 12.703-10.297 23-23 23A22.92 22.92 0 0 1 7.53 40.031C11.708 44.322 17.54 47 23.999 47c12.703 0 23-10.298 23-23 0-6.462-2.677-12.291-6.969-16.469z" opacity=".1"/>
</svg>
